icons/icn_infoPointer.svg

<svg width="24" xmlns="http://www.w3.org/2000/svg" height="24" id="screenshot-db98763a-3795-80f3-8006-36c0284f17ba" viewBox="0 0 24 24" xmlns:xlink="http://www.w3.org/1999/xlink" fill="none" version="1.1"><g id="shape-db98763a-3795-80f3-8006-36c0284f17ba"><g class="frame-container-wrapper"><g class="frame-container-blur"><g class="frame-container-shadows"><g fill="none"><g class="fills" id="fills-db98763a-3795-80f3-8006-36c0284f17ba"><rect rx="0" ry="0" x="0" y="0" width="24" height="24.000000000000455" transform="matrix(1, 0, 0, 1, 0, 0)" class="frame-background"/></g><g class="frame-children"><g id="shape-db98763a-3795-80f3-8006-36bff5a33b51" rx="0" ry="0" style="fill: rgb(0, 0, 0);"><g id="shape-db98763a-3795-80f3-8006-36bff5a4145d" style="opacity: 1;"><g class="fills" id="fills-db98763a-3795-80f3-8006-36bff5a4145d"><path d="M11.513720512390137,2.0527122020721436C11.087206840515137,2.0557639598846436,10.858202934265137,2.2010276317596436,10.634814262390137,2.4433372020721436L10.619433403015137,2.4588401317596436L2.345996141433716,12.577980995178223C2.145556688308716,12.808815956115723,2.041064500808716,13.137185096740723,2.094043016433716,13.464699745178223C2.189257860183716,14.051613807678223,2.759082078933716,14.458230018615723,3.342089891433716,14.365090370178223L6.486620903015137,13.847512245178223L5.084277153015137,19.134620666503906C4.931200981140137,19.707740783691406,5.287890434265137,20.310646057128906,5.859667778015137,20.462745666503906L7.668261528015137,20.949073791503906L7.676074028015137,20.949073791503906C8.246630668640137,21.100196838378906,8.851122856140137,20.754737854003906,9.004199028015137,20.181495666503906L10.398730278015137,14.888527870178223L12.195605278015137,16.365089416503906C12.791552543640137,18.457984924316406,14.720019340515137,19.997901916503906,17.000293731689453,19.997901916503906C19.753955841064453,19.997901916503906,21.998340606689453,17.753395080566406,21.998340606689453,14.999855995178223C21.998340606689453,12.246315956115723,19.753955841064453,10.001809120178223,17.000293731689453,10.001809120178223C15.806200981140137,10.001809120178223,14.708788871765137,10.424050331115723,13.847949028015137,11.126809120178223L12.525683403015137,2.9959495067596436L12.531298637390137,2.9959495067596436C12.493945121765137,2.7586448192596436,12.396044731140137,2.5140159130096436,12.199267387390137,2.3240745067596436C12.002490043640137,2.1341331005096436,11.727099418640137,2.0511252880096436,11.513720512390137,2.0525901317596436ZM11.261767387390137,3.8749778270721436L12.666064262390137,12.517556190490723C12.333788871765137,13.095437049865723,12.115283012390137,13.745339393615723,12.037158012390137,14.437478065490723L11.181689262390137,13.738259315490723C10.468066215515137,13.153420448303223,9.327929496765137,13.518166542053223,9.091845512390137,14.410134315490723L7.734423637390137,19.525367736816406L6.502001762390137,19.201148986816406L7.970751762390137,13.671853065490723C8.156298637390137,12.970803260803223,7.512499809265137,12.268288612365723,6.796923637390137,12.386696815490723L3.910205125808716,12.859353065490723ZM16.853565216064453,11.749978065490723C17.327686309814453,11.749978065490723,17.712451934814453,12.115334510803223,17.712940216064453,12.566384315490723C17.713428497314453,13.018288612365723,17.328662872314453,13.384865760803223,16.853565216064453,13.384743690490723C16.378467559814453,13.384865760803223,15.993700981140137,13.018288612365723,15.994189262390137,12.566384315490723C15.994677543640137,12.115334510803223,16.379444122314453,11.749978065490723,16.853565216064453,11.749978065490723ZM16.843799591064453,14.527321815490723C17.246387481689453,14.529152870178223,17.571094512939453,14.841530799865723,17.568408966064453,15.224587440490723L17.568408966064453,17.798805236816406C17.566699981689453,18.178810119628906,17.243213653564453,18.486549377441406,16.843799591064453,18.488258361816406C16.441211700439453,18.490577697753906,16.113086700439453,18.181739807128906,16.111377716064453,17.798805236816406L16.111377716064453,15.224587440490723C16.108448028564453,14.838601112365723,16.438037872314453,14.525002479553223,16.843799591064453,14.527321815490723Z" style="display: inline; stroke-linecap: round; stroke-linejoin: round; fill: rgb(0, 0, 0); fill-opacity: 1;"/></g></g></g></g></g></g></g></g></g></svg>

<svg fill="none" viewBox="0 0 24 24"><g class="frame-container-wrapper"><g class="frame-container-blur"><g class="frame-container-shadows"><g class="fills"><rect width="24" height="24" class="frame-background" rx="0" ry="0"/></g><g class="frame-children"><path fill="#000" d="M11.5137 2.0527c-.4265.003-.6555.1483-.8789.3906l-.0154.0155L2.346 12.578c-.2004.2308-.305.5592-.252.8867.0953.587.665.9935 1.248.9004l3.1446-.5176-1.4023 5.2871c-.1531.5731.2036 1.176.7754 1.3281l1.8086.4864h.0078c.5705.1511 1.175-.1944 1.3281-.7676l1.3945-5.293 1.797 1.4766c.5959 2.0929 2.5243 3.6328 4.8046 3.6328 2.7537 0 4.998-2.2445 4.998-4.998 0-2.7536-2.2443-4.998-4.998-4.998-1.1941 0-2.2915.4222-3.1524 1.125l-1.3222-8.131h.0056c-.0374-.2373-.1353-.4819-.332-.6718-.1968-.19-.4722-.273-.6856-.2715Zm-.252 1.8223 1.4044 8.6426a4.9615 4.9615 0 0 0-.629 1.9199l-.8554-.6992c-.7136-.5849-1.8538-.2201-2.0899.6718l-1.3574 5.1153-1.2324-.3243 1.4688-5.5292c.1855-.7011-.4583-1.4036-1.1739-1.2852l-2.8867.4727Zm5.5919 7.875c.474 0 .8589.3653.8593.8164.0005.4519-.3842.8185-.8593.8183-.4751.0002-.8599-.3664-.8594-.8183.0005-.451.3852-.8164.8594-.8164Zm-.0098 2.7773c.4026.0019.7273.3142.7246.6973v2.5742c-.0017.38-.3252.6877-.7246.6895-.4026.0023-.7307-.3066-.7324-.6895v-2.5742c-.003-.386.3266-.6996.7324-.6973Z" class="fills"/></g></g></g></g></svg>
